X: 724
T: Weigong puge zhai
%%abc-version 2.0
%%abcx-abcm2ps-target-version 5.9.1 (29 Sep 2008)
%%abc-creator hum2abc beta
%%abcx-conversion-date 2013/10/02 07:52:30
%%abc-edited-by Helmut Schaffrath
%%humdrum-veritas 3345906808
%%humdrum-veritas-data 3966358535
%%continueall 1
%%barnumbers 0
L: 1/16
M: 2/4
K: F
c2 d f c2 B A [I:setbarnb 1]| 
G2 A cG4 | 
F2 G A F2 E D | 
C2 D FC4 | 
C2 C2 c2 B A | 
G2 G2 G2 c2 | 
B2 B G F G F D | 
C2 D FC4 |]  



